X:69
T:Walls of Liscarrol, The
M:6/8
R:jig
K:Dmix
d | dcA AGE | EDD D2E | GEE cEE | GAB cde |
dcA AGE | EDD D2E | GEE cEE | DED D2 :|
|: d | dAd ecA | dAd ecA | GEE cEE | GAB cde |
[1 dAd ecA | dAd ecA | GEE cEE | DED D2 :|
dcA AGE | EDD D2E | GEE cEE | DED D2 |]

